src/images/more__button.svg

<svg width="320" height="36" viewBox="0 0 320 36" fill="none" xmlns="http://www.w3.org/2000/svg">
<path fill-rule="evenodd" clip-rule="evenodd" d="M314 1H6C3.23858 1 1 3.23858 1 6V30C1 32.7614 3.23858 35 6 35H314C316.761 35 319 32.7614 319 30V6C319 3.23858 316.761 1 314 1ZM6 0C2.68629 0 0 2.68629 0 6V30C0 33.3137 2.6863 36 6 36H314C317.314 36 320 33.3137 320 30V6C320 2.68629 317.314 0 314 0H6Z" fill="#424242"/>
</svg>

<svg width="320" height="36" fill="none" xmlns="http://www.w3.org/2000/svg"><path fill-rule="evenodd" clip-rule="evenodd" d="M314 1H6a5 5 0 0 0-5 5v24a5 5 0 0 0 5 5h308a5 5 0 0 0 5-5V6a5 5 0 0 0-5-5ZM6 0a6 6 0 0 0-6 6v24a6 6 0 0 0 6 6h308a6 6 0 0 0 6-6V6a6 6 0 0 0-6-6H6Z" fill="#424242"/></svg>
